X:155
T:Gentle Annie's Irish Stew
M:6/8
L:1/8
C:Wilf Gillis
K:G
E|"D"DFA "D7"dfd|"G"BdB "D"A2 F|"G"GAB "D"AGF|"Em"EFG "A7"FGE|
"D"DFA "D7"dfd|"G"BdB "D"A2 F|"G"GBd "A7"^ceg|"D"fdd d2:|
g|"D"fdf "A"e^ce|"D"def "G"gab|"D"afd fef|"A"gee e2 g|
"D"fdf "A"e^ce|"D"def "G"gab|"D"afd "A"efg|"D"fdd d2 g|
"D"fdf "A"e^ce|"D"def "G"g2 b|"D"afd g2 f|"A"e^cA A2 c|
"G"BGB d^cB|"D"AFA d2 A|"G"B^cd "A"efg|"D"fdd d2||
